svg/u1f4b6.svg

<svg viewBox="0 0 128 128" xmlns="http://www.w3.org/2000/svg">
  <g id="Layer_1">
    <g>
      <path d="M119.65,102.09H8.35c-2.4,0-4.35-1.95-4.35-4.35V30.28c0-2.41,1.95-4.37,4.37-4.37h111.27 c2.41,0,4.37,1.95,4.37,4.37v67.46C124,100.14,122.05,102.09,119.65,102.09z" fill="#1565C0"/>
      <path d="M119.78,89.91H8.22C5.89,89.91,4,88.02,4,85.69V30.28c0-2.41,1.95-4.37,4.37-4.37h111.27 c2.41,0,4.37,1.95,4.37,4.37v55.41C124,88.02,122.11,89.91,119.78,89.91z" fill="#29B6F6"/>
      <circle cx="84.78" cy="57.91" r="18.5" opacity="0.5" fill="#1565C0"/>
      <path d="M106.45,33.1c0.86,5.4,5.14,9.68,10.54,10.54v28.54c-5.4,0.86-9.68,5.14-10.54,10.54H21.42 c-1.1-5.11-5.26-9.05-10.42-9.87V44.31c5.63-0.89,10.03-5.49,10.63-11.21H106.45 M108.29,31.1H19.69 c0.01,0.22,0.02,0.44,0.02,0.67c0,5.91-4.79,10.7-10.7,10.7v32.23c5.68,0,10.33,4.43,10.68,10.03h88.61 c0-5.91,4.79-10.7,10.7-10.7V41.8C113.08,41.8,108.29,37.01,108.29,31.1L108.29,31.1z" fill="#1565C0"/>
      <rect height="76.18" fill="#FFECB3" width="22.01" x="53" y="25.91"/>
      <rect height="12.18" fill="#FFC06C" width="22.01" x="53" y="89.91"/>
      <path d="M42,62.42h-7.99c-0.27,0-0.5,0.24-0.49,0.51c0.13,2.81,0.87,5,2.2,6.56 c1.42,1.65,3.42,2.47,6.02,2.47c1.45,0,2.83-0.17,4.14-0.51c0.54-0.14,1.07,0.25,1.14,0.8l0.23,1.85 c0.06,0.48-0.25,0.94-0.73,1.04c-1.61,0.35-3.22,0.52-4.83,0.52c-3.9,0-6.98-1.15-9.22-3.46c-2.16-2.22-3.32-5.33-3.49-9.32 c-0.01-0.26-0.22-0.46-0.48-0.46h-3.17c-0.32,0-0.58-0.26-0.58-0.58v-1.78c0-0.32,0.26-0.58,0.58-0.58h3.15 c0.27,0,0.48-0.22,0.48-0.48v-2.27c0-0.27-0.22-0.48-0.48-0.48h-3.15c-0.32,0-0.58-0.26-0.58-0.58v-1.8 c0-0.32,0.26-0.58,0.58-0.58h3.17c0.25,0,0.46-0.2,0.47-0.46c0.23-3.9,1.42-6.94,3.58-9.12c2.24-2.26,5.28-3.39,9.1-3.39 c1.44,0,3.06,0.18,4.84,0.54c0.48,0.1,0.8,0.56,0.74,1.04l-0.23,1.83c-0.07,0.57-0.62,0.97-1.17,0.82 c-1.38-0.35-2.76-0.53-4.14-0.53c-2.58,0-4.57,0.8-5.96,2.4c-1.31,1.51-2.05,3.62-2.21,6.34c-0.02,0.28,0.21,0.52,0.49,0.52H42 c0.32,0,0.58,0.26,0.58,0.58v1.8c0,0.32-0.26,0.58-0.58,0.58h-8.01c-0.27,0-0.48,0.22-0.48,0.48v2.27c0,0.27,0.22,0.48,0.48,0.48 H42c0.32,0,0.58,0.26,0.58,0.58v1.78C42.58,62.16,42.32,62.42,42,62.42z" fill="#FFFFFF"/>
    </g>
  </g>
</svg>

<svg viewBox="0 0 128 128" xmlns="http://www.w3.org/2000/svg">
  <defs/>
  <path d="M119.65,102.09 L8.35,102.09 C5.95,102.09 4,100.14 4,97.74 L4,30.28 C4,27.87 5.95,25.91 8.37,25.91 L119.64,25.91 C122.05,25.91 124.01,27.86 124.01,30.28 L124.01,97.74 C124,100.14 122.05,102.09 119.65,102.09 Z" fill="#1565C0"/>
  <path d="M119.78,89.91 L8.22,89.91 C5.89,89.91 4,88.02 4,85.69 L4,30.28 C4,27.87 5.95,25.91 8.37,25.91 L119.64,25.91 C122.05,25.91 124.01,27.86 124.01,30.28 L124.01,85.69 C124,88.02 122.11,89.91 119.78,89.91 Z" fill="#29B6F6"/>
  <path d="M103.28,57.91 A18.5 18.5 0 1 1 66.28,57.91 A18.5 18.5 0 1 1 103.28,57.91 Z" fill="#1565C0" opacity="0.5"/>
  <path d="M106.45,33.1 C107.31,38.5 111.59,42.78 116.99,43.64 L116.99,72.18 C111.59,73.04 107.31,77.32 106.45,82.72 L21.42,82.72 C20.32,77.61 16.16,73.67 11,72.85 L11,44.31 C16.63,43.42 21.03,38.82 21.63,33.1 L106.45,33.1 M108.29,31.1 L19.69,31.1 C19.7,31.32 19.71,31.54 19.71,31.77 C19.71,37.68 14.92,42.47 9.01,42.47 L9.01,74.7 C14.69,74.7 19.34,79.13 19.69,84.73 L108.3,84.73 C108.3,78.82 113.09,74.03 119,74.03 L119,41.8 C113.08,41.8 108.29,37.01 108.29,31.1 L108.29,31.1 Z" fill="#1565C0"/>
  <path d="M53,25.91 L75.01,25.91 L75.01,102.09 L53,102.09 L53,25.91 Z" fill="#FFECB3"/>
  <path d="M53,89.91 L75.01,89.91 L75.01,102.09 L53,102.09 L53,89.91 Z" fill="#FFC06C"/>
  <path d="M42,62.42 L34.01,62.42 C33.74,62.42 33.51,62.66 33.52,62.93 C33.65,65.74 34.39,67.93 35.72,69.49 C37.14,71.14 39.14,71.96 41.74,71.96 C43.19,71.96 44.57,71.79 45.88,71.45 C46.42,71.31 46.95,71.7 47.02,72.25 L47.25,74.1 C47.31,74.58 47,75.04 46.52,75.14 C44.91,75.49 43.3,75.66 41.69,75.66 C37.79,75.66 34.71,74.51 32.47,72.2 C30.31,69.98 29.15,66.87 28.98,62.88 C28.97,62.62 28.76,62.42 28.5,62.42 L25.33,62.42 C25.01,62.42 24.75,62.16 24.75,61.84 L24.75,60.06 C24.75,59.74 25.01,59.48 25.33,59.48 L28.48,59.48 C28.75,59.48 28.96,59.26 28.96,59 L28.96,56.73 C28.96,56.46 28.74,56.25 28.48,56.25 L25.33,56.25 C25.01,56.25 24.75,55.99 24.75,55.67 L24.75,53.87 C24.75,53.55 25.01,53.29 25.33,53.29 L28.5,53.29 C28.75,53.29 28.96,53.09 28.97,52.83 C29.2,48.93 30.39,45.89 32.55,43.71 C34.79,41.45 37.83,40.32 41.65,40.32 C43.09,40.32 44.71,40.5 46.49,40.86 C46.97,40.96 47.29,41.42 47.23,41.9 L47,43.73 C46.93,44.3 46.38,44.7 45.83,44.55 C44.45,44.2 43.07,44.02 41.69,44.02 C39.11,44.02 37.12,44.82 35.73,46.42 C34.42,47.93 33.68,50.04 33.52,52.76 C33.5,53.04 33.73,53.28 34.01,53.28 L42,53.28 C42.32,53.28 42.58,53.54 42.58,53.86 L42.58,55.66 C42.58,55.98 42.32,56.24 42,56.24 L33.99,56.24 C33.72,56.24 33.51,56.46 33.51,56.72 L33.51,58.99 C33.51,59.26 33.73,59.47 33.99,59.47 L42,59.47 C42.32,59.47 42.58,59.73 42.58,60.05 L42.58,61.83 C42.58,62.16 42.32,62.42 42,62.42 Z" fill="#FFFFFF"/>
</svg>
